X:1
T:Title
%%score 1 2
L:1/8
Q:1/4=85
M:2/4
K:C
V:1 treble nm="Grand Piano, Soprano"
V:2 bass nm="Choir Pad, This is Children�s Day"
V:1
 [EG][EG] [FA][FA] | [EG][EG] [CE]2 | [EG][EG] [Ec][Ec] | [GB][FA] [EG]2 | [EG][EG] [FA][FA] | %5
w: By~A.~F.~Myers * * *|||||
 [EG][EG] [CE]2 | [EG][Gc] [FB][Fd] | [Ec]4 | [Fc][Fc] [Fc][Fc] | [FB][FA] [EG]2 | [FG][FB] [FB]2 | %11
w: ||||||
 [EG][Ec] [Ec]2 | [Fc][Fc] [Fc][Fc] | [FB][FA] [EG]2 | [Gc][^Fc] [=FB][FB] | [Ec]4- | [Ec]2 z2 |] %17
w: ||||||
V:2
 [C,C][C,C] [F,C][F,C] | [C,C][C,C] [C,G,]2 | [C,C][C,C] [C,G,][C,G,] | [C,C][C,C] [C,C]2 | %4
 [C,C][C,C] [F,C][F,C] | [C,C][C,C] [C,G,]2 | [C,C][E,C] [G,D][G,B,] | [C,C]4 | %8
 [F,A,][F,A,] [F,A,][F,A,] | [F,B,][F,C] [C,C]2 | [G,B,][G,D] [G,D]2 | [C,C][C,G,] [C,G,]2 | %12
 [F,A,][F,A,] [F,A,][F,A,] | [F,B,][F,C] [C,C]2 | [E,C][A,D] [G,D]G, | [C,G,]4- | [C,G,]2 z2 |] %17

